src/categories-icons-sprite/categories/svg-cat-cars-parts.svg

<svg width="32" height="32" viewBox="0 0 32 32" fill="none" xmlns="http://www.w3.org/2000/svg">
<path class="p-7C8388" d="M0 7.00796L2.97515 9.98311L6.18891 10.3937L9.82413 9.03592L10.3937 6.18891L9.98311 2.97515L7.00796 0L0 7.00796Z" fill="#5FBEFF"/>
<path class="p-575F64" d="M25.8113 21.6062L22.351 22.3508L21.6064 25.811L22.0171 29.0248L24.9922 31.9999L32.0002 24.992L29.025 22.0168L25.8113 21.6062Z" fill="#4D98CB"/>
<path class="p-7C8388" d="M24.9922 0L22.0171 2.97515L21.6064 6.18891L22.9643 9.82413L25.8113 10.3937L29.025 9.98311L32.0002 7.00796L24.9922 0Z" fill="#4D98CB"/>
<path class="p-575F64" d="M10.3937 25.811L9.64914 22.3508L6.18891 21.6062L2.97515 22.0168L0 24.992L7.00796 31.9999L9.98311 29.0248L10.3937 25.811Z" fill="#5FBEFF"/>
<path class="p-BBDCFF" d="M20.2054 16.0001L25.8116 10.3938L21.6068 6.18896L16.0005 11.7952L10.3943 6.18896L6.18945 10.3938L11.7957 16.0001L6.18945 21.6063L10.3943 25.8111L16.0005 20.2049L21.6068 25.8111L25.8116 21.6063L20.2054 16.0001Z" fill="#A1D1FD"/>
<path class="p-94B4D7" d="M25.8111 21.6063L21.6063 25.8111L16 20.2049V11.7952L21.6063 6.18896L25.8111 10.3938L20.2048 16.0001L25.8111 21.6063Z" fill="#65B3E7"/>
</svg>

<svg width="32" height="32" fill="none" xmlns="http://www.w3.org/2000/svg"><path class="p-7C8388" d="M0 7.008l2.975 2.975 3.214.41 3.635-1.357.57-2.847-.41-3.214L7.007 0 0 7.008z" fill="#5FBEFF"/><path class="p-575F64" d="M25.811 21.606l-3.46.745-.745 3.46.411 3.214L24.992 32 32 24.992l-2.975-2.975-3.214-.41z" fill="#4D98CB"/><path class="p-7C8388" d="M24.992 0l-2.975 2.975-.41 3.214 1.357 3.635 2.847.57 3.214-.41L32 7.007 24.992 0z" fill="#4D98CB"/><path class="p-575F64" d="M10.394 25.811l-.745-3.46-3.46-.745-3.214.41L0 24.993 7.008 32l2.975-2.975.41-3.214z" fill="#5FBEFF"/><path class="p-BBDCFF" d="M20.205 16l5.607-5.606-4.205-4.205L16 11.795 10.394 6.19 6.19 10.394 11.796 16l-5.607 5.606 4.205 4.205L16 20.205l5.607 5.606 4.205-4.205L20.205 16z" fill="#A1D1FD"/><path class="p-94B4D7" d="M25.811 21.606l-4.205 4.205L16 20.205v-8.41l5.606-5.606 4.205 4.205L20.205 16l5.606 5.606z" fill="#65B3E7"/></svg>
